src/Static/Icons/cards.svg

<?xml version="1.0" encoding="UTF-8"?>
<svg width="171px" height="194px" viewBox="0 0 171 194" version="1.1" xmlns="http://www.w3.org/2000/svg" xmlns:xlink="http://www.w3.org/1999/xlink">
    <title>Group</title>
    <defs>
        <path d="M144.82372,0 L101.539589,0 C92.619988,0 85.3633088,7.25470313 85.3633088,16.171875 L85.3633088,28.4466875 L73.0851527,28.4466875 C64.1655518,28.4466875 56.9088725,35.7013906 56.9088725,44.6185625 L56.9088725,56.893375 L44.6307164,56.893375 C35.7111155,56.893375 28.4544363,64.1480781 28.4544363,73.06525 L28.4544363,85.3400625 L16.1762801,85.3400625 C7.25667927,85.3400625 0,92.5947656 0,101.511938 L0,167.828125 C0,176.745297 7.25667927,184 16.1762801,184 L59.4604111,184 C68.380012,184 75.6366912,176.745297 75.6366912,167.828125 L75.6366912,155.553313 L87.9148473,155.553313 C96.8344482,155.553313 104.091127,148.298609 104.091127,139.381438 L104.091127,127.106625 L116.369284,127.106625 C125.288884,127.106625 132.545564,119.851922 132.545564,110.93475 L132.545564,98.6599375 L144.82372,98.6599375 C153.743321,98.6599375 161,91.4052344 161,82.4880625 L161,16.171875 C161,7.25470313 153.743321,0 144.82372,0 Z M64.8525045,167.828125 C64.8525045,170.800516 62.4336114,173.21875 59.4604111,173.21875 L16.1762801,173.21875 C13.2030799,173.21875 10.7841868,170.800516 10.7841868,167.828125 L10.7841868,101.512297 C10.7841868,98.5399062 13.2030799,96.1216719 16.1762801,96.1216719 L59.4604111,96.1216719 C62.4336114,96.1216719 64.8525045,98.5399062 64.8525045,101.512297 L64.8525045,167.828125 Z M93.3065813,139.381438 C93.3065813,142.353828 90.8876882,144.772063 87.9144879,144.772063 L75.6363318,144.772063 L75.6363318,101.512297 C75.6363318,92.595125 68.3796525,85.3404219 59.4600516,85.3404219 L39.238623,85.3404219 L39.238623,73.0656094 C39.238623,70.0932188 41.6575161,67.6749844 44.6307164,67.6749844 L87.9144879,67.6749844 C90.8876882,67.6749844 93.3065813,70.0932188 93.3065813,73.0656094 L93.3065813,139.381438 Z M121.761377,110.93475 C121.761377,113.907141 119.342484,116.325375 116.369284,116.325375 L104.091127,116.325375 L104.091127,73.0656094 C104.091127,64.1484375 96.8344482,56.8937344 87.9148473,56.8937344 L67.6934187,56.8937344 L67.6934187,44.6189219 C67.6934187,41.6465313 70.1123118,39.2282969 73.0855121,39.2282969 L116.369284,39.2282969 C119.342484,39.2282969 121.761377,41.6465313 121.761377,44.6189219 L121.761377,110.93475 Z M150.216173,82.4877031 C150.216173,85.4600938 147.79692,87.8783281 144.82372,87.8783281 L132.545564,87.8783281 L132.545564,44.6185625 C132.545564,35.7013906 125.288884,28.4466875 116.369284,28.4466875 L96.147855,28.4466875 L96.147855,16.171875 C96.147855,13.1994844 98.5667481,10.78125 101.539948,10.78125 L144.824079,10.78125 C147.79728,10.78125 150.216173,13.1994844 150.216173,16.171875 L150.216173,82.4877031 L150.216173,82.4877031 Z" id="path-1"></path>
        <filter x="-4.7%" y="-3.0%" width="109.3%" height="108.2%" filterUnits="objectBoundingBox" id="filter-2">
            <feMorphology radius="0.5" operator="dilate" in="SourceAlpha" result="shadowSpreadOuter1"></feMorphology>
            <feOffset dx="0" dy="2" in="shadowSpreadOuter1" result="shadowOffsetOuter1"></feOffset>
            <feGaussianBlur stdDeviation="2" in="shadowOffsetOuter1" result="shadowBlurOuter1"></feGaussianBlur>
            <feComposite in="shadowBlurOuter1" in2="SourceAlpha" operator="out" result="shadowBlurOuter1"></feComposite>
            <feColorMatrix values="0 0 0 0 0   0 0 0 0 0   0 0 0 0 0  0 0 0 0.5 0" type="matrix" in="shadowBlurOuter1"></feColorMatrix>
        </filter>
    </defs>
    <g id="Page-1" stroke="none" stroke-width="1" fill="none" fill-rule="evenodd">
        <g id="Step-One" transform="translate(-112.000000, -220.000000)" fill-rule="nonzero">
            <g id="Shape" transform="translate(117.000000, 223.000000)">
                <use fill="black" fill-opacity="1" filter="url(#filter-2)" xlink:href="#path-1"></use>
                <use stroke="#1A1A1D" stroke-width="1" fill="#4E4E50" xlink:href="#path-1"></use>
            </g>
        </g>
    </g>
</svg>

<svg xmlns="http://www.w3.org/2000/svg" width="171" height="194" xmlns:xlink="http://www.w3.org/1999/xlink"><title>Group</title><defs><path id="b" d="M144.82 0h-43.28c-8.92 0-16.18 7.25-16.18 16.17v12.28H73.1c-8.93 0-16.2 7.25-16.2 16.17V56.9H44.64c-8.92 0-16.18 7.25-16.18 16.17v12.27H16.18C7.26 85.34 0 92.6 0 101.5v66.33C0 176.75 7.26 184 16.18 184h43.28c8.92 0 16.18-7.25 16.18-16.17v-12.28H87.9c8.93 0 16.2-7.25 16.2-16.17V127.1h12.27c8.92 0 16.18-7.25 16.18-16.17V98.66h12.27c8.92 0 16.18-7.25 16.18-16.17V16.16C161 7.25 153.74 0 144.82 0zM64.85 167.83c0 2.97-2.42 5.4-5.4 5.4H16.2c-2.98 0-5.4-2.43-5.4-5.4V101.5c0-2.96 2.42-5.38 5.4-5.38h43.28c2.97 0 5.4 2.42 5.4 5.4v66.3zm28.46-28.45c0 2.97-2.4 5.4-5.4 5.4H75.65V101.5c0-8.9-7.26-16.16-16.18-16.16H39.24V73.07c0-2.98 2.42-5.4 5.4-5.4H87.9c3 0 5.4 2.42 5.4 5.4v66.3zm28.46-28.45c0 2.98-2.42 5.4-5.4 5.4H104.1V73.07c0-8.92-7.27-16.18-16.2-16.18H67.7V44.6c0-2.97 2.4-5.4 5.4-5.4h43.27c2.97 0 5.4 2.43 5.4 5.4v66.3zm28.46-28.44c0 2.96-2.42 5.38-5.4 5.38h-12.27V44.62c0-8.92-7.26-16.17-16.18-16.17H96.15V16.17c0-2.97 2.42-5.4 5.4-5.4h43.27c2.98 0 5.4 2.43 5.4 5.4V82.5z"/><filter id="a" width="109.3%" height="108.2%" x="-4.7%" y="-3%" filterUnits="objectBoundingBox"><feMorphology radius=".5" operator="dilate" in="SourceAlpha" result="shadowSpreadOuter1"/><feOffset dy="2" in="shadowSpreadOuter1" result="shadowOffsetOuter1"/><feGaussianBlur stdDeviation="2" in="shadowOffsetOuter1" result="shadowBlurOuter1"/><feComposite in="shadowBlurOuter1" in2="SourceAlpha" operator="out" result="shadowBlurOuter1"/><feColorMatrix values="0 0 0 0 0 0 0 0 0 0 0 0 0 0 0 0 0 0 0.5 0" in="shadowBlurOuter1"/></filter></defs><g fill="none"><g fill-rule="nonzero"><g transform="translate(-112 -220) translate(117 223)"><use fill="#000" filter="url(#a)" xlink:href="#b"/><use fill="#4E4E50" stroke="#1A1A1D" xlink:href="#b"/></g></g></g></svg>
